X:1
T:Title
%%score ( 1 2 ) { 3 | 4 }
L:1/8
Q:1/4=110
M:4/4
K:E
V:1 treble nm="Grand Piano, Staff 1"
V:2 treble 
V:3 bass nm="Choir Pad, Ave Maris Stella, 66.66"
V:4 bass 
V:1
 [B,E]2 [CE]2 [DF]2 [EG]2 | F2- [DF]2 E4 | [EG]2 F2 GA [DB]2 | c3- [Ec] [DB]4 | %4
w: By~18th~Century~melody * * *||||
 [EB]2 [EB]2 c-[Fc] [GB]2 | A2- [DA]2 [EG]4 | [EF]2 [EG]2 [DA]2 [EG]2 | F2- [DF]2 E4- | E4 z4 |] %9
w: |||||
V:2
 x8 | E2 z2 z4 | z4 E2 z2 | F4 z4 | z4 .E2 z2 | C2 z2 z4 | x8 | E2 z2 z4 | x8 |] %9
V:3
 G,2 G,2 B,2 B,2 | C2 B,A, G,4 | B,2 B,2 B,2 B,2 | B,2 ^A,2 B,4 | G,2 G,2 A,2 G,2 | A,4 C4 | %6
 C2 B,2 A,2 B,2 | C2 B,A, G,4- | G,4 z4 |] %9
V:4
 E,2 C,2 B,,2 E,2 | A,,2 B,,2 E,4 | E,2 D,2 E,F, G,2 | F,4 B,,4 | E,2 =D,2 C,^D, E,2 | F,4 C,4 | %6
 A,2 G,2 F,2 E,2 | A,,2 B,,2 E,4- | E,4 z4 |] %9

